X:5909
T:Gan ainm
R:Reel
S:Jacky Daly
H:
N:
D:Jacky Daly & Seamus Creagh
Z:Adrian Scahill
M:4/4
L:1/8
K:G
G2BG Bdde|fdge fdcA|G2BG Bdde|fdcA AGG2:||\
g2dg g2ag|fdde fgaf|g2ag gbag|fdcA BGG2|\
g2db g2dg|fgag fdef|defg abag|fdcA AGG2||
